X:18247
T:Vaqueirada (MQ 040)
R:Vaqueirada
C:Tradicional
S:Msica Tradicional Asturiana, (C) Tello & Tito. Asturies, 2001.
S:http://pagina.de/MusTradAst <telloytito@asturies.org>
N:Este estilo de vaqueiras es de los ms conocidos.
N:Esta tiene tres partes, la primera en tono menor por lo que viene muy bien para practicar las notas alteradas, y las otras dos en mayor ms sencillas de tocar.
A:Asturies
Z:Manolo Quirs 040
M:6/8
L:1/8
Q:1/4=128
K:Cm
|: G>GG GGA|B>AG-GFF|G2 F F2 =E|F2 F4-|F4-F2|
G>GG GGA|B>AG-GFF|G2 F F2 =E|F2 F DED|
E>DC-C>DC/B,/|C3 DED|E>DC-C>DC/B,/|C6 :|
[K:C]
|C>CC CEE|[M:9/8]F3 F6|[M:6/8]C>CC CEE|[M:9/8]F3 E6|
[M:6/8]C>CC CEE|FFE GGG|F F2 D2 E/4D/4C/4B,/4|C6-|C6|
C>CC CEE|[M:9/8]F3 F6|[M:6/8]C>CC CEE|[M:9/8]F3 E6|
[M:6/8]E>EE FFF|E E2 FFF|E3-ECC|E E2 C3-|C6|
